icon-themes/breeze_svg/svtools/res/ed07.svg

<svg viewBox="0 0 11 11" xmlns="http://www.w3.org/2000/svg"><path d="m1 1v9l5-4.5z" fill="#1d99f3"/><path d="m5 1v3h2v1 4.5c0 .2761.223858.5.5.5s.5-.2239.5-.5v-.5h1v-1h-1v-.5-.5h1v-1h-1v-1-1h2v-3zm1 1h3v1h-3z" fill="#4d4d4d"/></svg>

<svg xmlns="http://www.w3.org/2000/svg" viewBox="0 0 11 11">
    <path
       style="fill:#1d99f3"
       d="M 1 1 L 1 10 L 6 5.5 L 1 1 z "
       />
    <path
       style="fill:#4d4d4d"
       d="M 5 1 L 5 4 L 7 4 L 7 5 L 7 9.5 C 7 9.7761 7.223858 10 7.5 10 C 7.776142 10 8 9.7761 8 9.5 L 8 9 L 9 9 L 9 8 L 8 8 L 8 7.5 L 8 7 L 9 7 L 9 6 L 8 6 L 8 5 L 8 4 L 10 4 L 10 1 L 5 1 z M 6 2 L 9 2 L 9 3 L 6 3 L 6 2 z "
       />
</svg>
